X: 11190
T: Dunmanway Lasses
R: jig
M: 6/8
K: Gmajor
D|GFG dBG|BAB dBG|GFG dBG|GAG GED|
GFG dBG|GAG dBG|GBG B2A|GEE E2:|
|:d|gfg aga|bge edB|gfg aga|bge e2 g/a/|
bgg agg|ege dBG|BAB GBA|GEE E2:|

